X:1
T:Beware, Oh Take Care
M:4/4
L:1/4
K:C
 G| C E E G| C E E C| D2 G G| E2 z| G| C/2C/2 E E G/2G/2| C/2C/2 E E C|\
 D2 E D| C3| c2
M:4/4
| A F F/2F/2 c| G E E2| G D D F| A G G2|
M:2/4
 c2|
M:4/4
 A F F/2F/2 c| G E EE/2-F/2| G2F/2-E/2 D| C2 z||
